X:1
T:Haec probatur
T:Antoine de Fevin
T:Source: Bicinia---Tomus II---Wittemberg---G.Rhau---1545. Editor :  André Vierendeels (23/06/17).
T:Notes : Original clefs: G3, C3 Original note values have been halved Editorial accidentals above the satff Square bracket indicates ligature The "inferior vox" partbook assigns this piece to Antoine Brumel.
T:Haec probatur
T:©
T:©
C:Antoine de Fevin
Z:©
%%score [ 1 2 ]
L:1/8
Q:1/4=90
M:2/2
K:F
V:1 treble nm="Soprano" snm="S"
V:2 treble-8 nm="Tenor" snm="T"
V:1
 z8 | z4 d4 | d4 d2 d2- | d2 cB A4 | z2 A4 A2 | A4 c4- | c2 BA G4 | z2 d4 c2 | A2 B3 A G2 | %9
w: |Haec|pro- ban- *|* * * tur,|co- ram|De- *|* * * o|et ho-|mi- * * *|
"^#" F2 G4 F2 | G4 z4 | G4 G2 G2 |"^b" B3 c de d2- | d2 cB c4 | d8 | z4 A4 | c4 z2 G2 | B3 c d4- | %18
w: ni- * *|bus,|con- cor- di-|a _ _ _ fra-||trum,|et|_ a-|mor _ _|
 d2 cB A4 | d4 d2 c2- | cB B4 A2 | B4 z4 | z2 d4 c2 | B6 AG | B2 A2 B2 cB | AG G4 F2 | G8 |] %27
w: _ _ _ _|pro- xi- mo-||rum,|vir et|mu- * *|* lier con- sen- *|* * tien- *|tes.|
V:2
 g4 g4 | g2 g4 fe | d4 z2 d2- | d2 d4 d2- | d2 d2 d4 | f6 ed | c4 z2 g2- | g2 f2 d2 e2 | %8
w: Haec pro-|ban- * * *|tur co-|* ram De|_ o, De-|o, _ _|_ et|_ ho- * *|
 f2 d3 c B2 | A2 G2 A4 | z2 G3 A B2 | c6 BA | G2 g4 f2 |"^b""^b" gfed e4 | d4 z4 | d4 f4 | %16
w: mi- ni- * *|* * bus,|con- * *|cor- * *|* di- a|fra- * * * *|trum,|et _|
 z2 c2 e3 f | g6 fe | d4 z2 f2- | fedc B2 f2 | d2 _e2 c4 | z2 B3 c d2- | d2 cB A4 | G2 d4 cB | %24
w: a- * *||mor pro-|* * * * * xi-|mo- * rum,|vir _ _|_ _ _ _|et mu- * *|
 d2 c2 d2 c2 | d2 G2 A4 |"^#" G8 |] %27
w: * lier con- sen-|* * tien-|tes.|

